X: 290
T: Benli`yi Aldım Kaçaktan
C: Dede Efendi
O: Turkey
F: http://compmusic.upf.edu/node/140
N: karcigar--kocekce--aksak--benliyi_aldim--dede_efendi
N: makam= karcigar
N: form= kocekce
N: usul= aksak = 9/8
M: 9/8
L: 1/16
K: C _2/4B _3/4e ^3/4f 
Q: 1/4=240
%%MIDI tuningsystem comma53
d4 z8 g2f2 e2 | d3ced cBc4gf gafe  | \
w:  ARANAĞME  |   | 
d4 z8 g2f2 e2 | 
w:   | 
d3ced cBc4g2 f2g2  | abc'd' c'_bag fedc c2{d}cB BA | 
w:   |   | 
A4z8gf gafe  | d4 z8 g2f2 e2 | d3ced cBc4gf gafe  | 
w:   |  ARANAĞME  |   | 
d4 z8 g2f2 e2 | d3ced cBc4g2 f2g2  | \
w:   |   | 
abc'd' c'_bag fedc c2{d}cB BA | 
w:   | 
A6 g2f2 g2a_b agfg  | a4 f2g2 a4 a6 | \
w:   |  *  Ben li yi  al  | 
a4a4a4_b4ag  | 
w:  dım  ka çak tan    | 
.g4 f2g2 g4 a2g2 f2 | f2 e2e2 d2d2 {f}edd6  | \
w:  *  Ben li yi  al  |  dım  *  ka *  çak *  *  *  tan    | 
z4 B2c2 d4 e2d2 c2 | 
w:  Gö rün mez  ol  | 
d4e2 d2c2 B2c6  | z4 g2g2 g2f2 a2g2 f2 | \
w:  du  sa *  çak *  tan    |  Ar zum  al *  ma  | 
f2 e2e2 d2d2 {f}edd4c2  | 
w:  dım  *  kö *  çek *  *  *  ten   | 
f4 e2d2 d8-d2 | d18  | d4 e2d2 c2B2 c6 | \
w:  Ben *  *  li    |   |  O lur  *  Ben *  li   | 
G4A4B4c4z2  | d4 e2d2 c2B2 c4 a2 | 
w:  SAZ  |  ol maz  *  Ben *  li   SAZ  | 
g2 f2e2 d2c2 B2c2 d2f2  | e4 d2e2 e2d2 f2e2 d2 | \
w:   |  *  Ni çin  ol  | 
d16z2  | B2c2 d4 d4 e2d2 c2 | 
w:  maz    |  El *  ler  kı na lı   | 
B2 c2d4d4e2 d2c2  | g2g2 g2f2 e2d2 e2d2 c2 | \
w:  göz *  ler  sür me li    |  Ne re de  *  bul *  ma lı   | 
B2 c2d4d4e2 d2c2  | 
w:  sa *  tın  al ma lı    | 
f4 e2d2 d4 =f4 =e2 | =e2 d2d2 c2c2 B2B4A2  | \
w:  Ben *  *  li  ah   |  gel  *  sür *  me *  lim   | 
A12 gfga fe | 
w:  gel   SAZ  | 
d4z8g2 f2e2  | d3c edcB c4 gfga fe | \
w:  ARANAĞME  |   | 
d4z8g2 f2e2  | 
w:   | 
d3c edcB c4 g2f2 g2 | ab c'd'c'_b agfe dcc2 {d}cBBA  | 
w:   |   | 
A4 z8 gfga fe | d4z8g2 f2e2  | d3c edcB c4 gfga fe | 
w:   |  ARANAĞME  |   | 
d4z8g2 f2e2  | d3c edcB c4 g2f2 g2 | \
w:   |   | 
ab c'd'c'_b agfe dcc2 {d}cBBA  | 
w:   | 
A6g2 f2g2 a_bag fg | a4f2 g2a4a6  | a4 a4 a4 _b4 ag | 
w:   |  *  Ben li yi  al  |  dım  ka çak tan    | 
.g4f2 g2g4a2 g2f2  | f2e2 e2d2 d2{f}ed d6 | \
w:  *  Ben li yi  al  |  dım  *  ka *  çak *  *  *  tan    | 
z4B2 c2d4e2 d2c2  | 
w:  Gö rün mez  ol  | 
d4 e2d2 c2B2 c6 | z4g2 g2g2 f2a2 g2f2  | \
w:  du  sa *  çak *  tan    |  Ar zum  al *  ma  | 
f2e2 e2d2 d2{f}ed d4 c2 | 
w:  dım  *  kö *  çek *  *  *  ten   | 
f4e2 d2d8-d2  | d18 | d4e2 d2c2 B2c6  | \
w:  Ben *  *  li    |   |  O lur  *  Ben *  li   | 
G4 A4 B4 c4 z2 | d4e2 d2c2 B2c4a2  | 
w:  SAZ  |  ol maz  *  Ben *  li   SAZ  | 
g2f2 e2d2 c2B2 c2d2 f2 | e4d2 e2e2 d2f2 e2d2  | \
w:   |  *  Ni çin  ol  | 
d16 z2 | B2 c2d4d4e2 d2c2  | 
w:  maz    |  El *  ler  kı na lı   | 
B2c2 d4 d4 e2d2 c2 | g2 g2g2 f2e2 d2e2 d2c2  | \
w:  göz *  ler  sür me li    |  Ne re de  *  bul *  ma lı   | 
B2c2 d4 d4 e2d2 c2 | 
w:  sa *  tın  al ma lı    | 
f4e2 d2d4=f4=e2  | =e2d2 d2c2 c2B2 B4 A2 | \
w:  Ben *  *  li  ah   |  gel  *  sür *  me *  lim   | 
A12|
w:  gel    | 


